X:1239
T:Dansa med mig lite
T:Polska efter Hjort Anders (SvL Dalarna 1239)
O:Rättvik, Dalarna
R:Polska
S:Hjort Anders Olsson
B:Svenska Låtar Dalarna
W:Dansa med mig lite, det kan du väl få,
W:bara du far vackert med mig.
M:3/4
L:1/8
Q:1/4=120
K:Am
vee ^ce/c/ d^f/d/|ee (^g/e/)g/b/ a>(e|=f)a/f/ df/d/ ee|c2 [A]4:|
|vc/d/c/B/ ^GB/G/ AA|^ce/c/ d^f/d/ [ee]2|c/d/c/B/ ^GB/G/ AA|^ce/c/ d^f/d/ [ee]2|
(g/a/)g/^f/ d=f/d/ ee|c2 [AA]4|

